configs/marketplace-logos/ChainPort.svg

<svg xmlns="http://www.w3.org/2000/svg" fill="none" viewBox="0 0 512 512">
  <path fill="#011128" d="M0 0h512v512H0z"/>
  <path fill="#0ED5B2" fill-rule="evenodd" d="M145.023 358.701c13.584 26.216 28.986 35.842 40.816 35.842 11.829 0 27.231-9.626 40.815-35.842 13.103-25.287 21.784-61.565 21.784-102.701 0-41.136-8.681-77.414-21.784-102.7-13.584-26.217-28.986-35.843-40.815-35.843-11.83 0-27.232 9.626-40.816 35.843-13.102 25.286-21.783 61.564-21.783 102.7s8.681 77.414 21.783 102.701ZM103.99 256c0 87.24 36.645 157.961 81.849 157.961 45.203 0 81.848-70.721 81.848-157.961 0-87.239-36.644-157.96-81.848-157.96S103.99 168.76 103.99 256Z" clip-rule="evenodd" opacity=".4"/>
  <path fill="#0ED5B2" fill-rule="evenodd" d="M215.187 358.701c13.584 26.216 28.986 35.842 40.816 35.842 11.829 0 27.231-9.626 40.815-35.842 13.103-25.287 21.784-61.565 21.784-102.701 0-41.136-8.681-77.414-21.784-102.7-13.584-26.217-28.985-35.843-40.815-35.843-11.83 0-27.232 9.626-40.816 35.843-13.102 25.286-21.783 61.564-21.783 102.7s8.681 77.414 21.783 102.701ZM174.154 256c0 87.24 36.645 157.961 81.849 157.961S337.852 343.24 337.852 256c0-87.239-36.645-157.96-81.849-157.96S174.154 168.76 174.154 256Z" clip-rule="evenodd" opacity=".7"/>
  <path fill="url(#ChainPort_svg__a)" d="M267.695 332.083c-38.746 0-70.156-34.051-70.156-76.055 0-42.004 31.41-76.055 70.156-76.055 38.747 0 70.157 34.051 70.157 76.055 0 42.004-31.41 76.055-70.157 76.055Z"/>
  <path fill="#0ED5B2" fill-rule="evenodd" d="M285.335 358.701c13.585 26.216 28.986 35.842 40.816 35.842 11.83 0 27.232-9.626 40.816-35.842C380.069 333.414 388.75 297.136 388.75 256c0-41.136-8.681-77.414-21.783-102.7-13.584-26.217-28.986-35.843-40.816-35.843-11.83 0-27.231 9.626-40.816 35.843-13.102 25.286-21.783 61.564-21.783 102.7s8.681 77.414 21.783 102.701ZM244.302 256c0 87.24 36.645 157.961 81.849 157.961S408 343.24 408 256c0-87.239-36.645-157.96-81.849-157.96S244.302 168.76 244.302 256Z" clip-rule="evenodd"/>
  <defs>
    <linearGradient id="ChainPort_svg__a" x1="269.649" x2="197.539" y1="256.028" y2="256.028" gradientUnits="userSpaceOnUse">
      <stop stop-color="#fff"/>
      <stop offset="1" stop-color="#fff" stop-opacity="0"/>
    </linearGradient>
  </defs>
</svg>

<svg width="512" height="512" viewBox="0 0 512 512" fill="none" xmlns="http://www.w3.org/2000/svg">
<rect width="512" height="512" fill="#011128"/>
<path opacity="0.4" fill-rule="evenodd" clip-rule="evenodd" d="M145.023 358.701C158.607 384.917 174.009 394.543 185.839 394.543C197.668 394.543 213.07 384.917 226.654 358.701C239.757 333.414 248.438 297.136 248.438 256C248.438 214.864 239.757 178.586 226.654 153.3C213.07 127.083 197.668 117.457 185.839 117.457C174.009 117.457 158.607 127.083 145.023 153.3C131.921 178.586 123.24 214.864 123.24 256C123.24 297.136 131.921 333.414 145.023 358.701ZM103.99 256C103.99 343.24 140.635 413.961 185.839 413.961C231.042 413.961 267.687 343.24 267.687 256C267.687 168.761 231.043 98.0391 185.839 98.0391C140.635 98.0391 103.99 168.761 103.99 256Z" fill="#0ED5B2"/>
<path opacity="0.7" fill-rule="evenodd" clip-rule="evenodd" d="M215.187 358.701C228.771 384.917 244.173 394.543 256.003 394.543C267.832 394.543 283.234 384.917 296.818 358.701C309.921 333.414 318.602 297.136 318.602 256C318.602 214.864 309.921 178.586 296.818 153.3C283.234 127.083 267.833 117.457 256.003 117.457C244.173 117.457 228.771 127.083 215.187 153.3C202.085 178.586 193.404 214.864 193.404 256C193.404 297.136 202.085 333.414 215.187 358.701ZM174.154 256C174.154 343.24 210.799 413.961 256.003 413.961C301.207 413.961 337.852 343.24 337.852 256C337.852 168.761 301.207 98.0391 256.003 98.0391C210.799 98.0391 174.154 168.761 174.154 256Z" fill="#0ED5B2"/>
<path d="M267.695 332.083C228.949 332.083 197.539 298.032 197.539 256.028C197.539 214.024 228.949 179.973 267.695 179.973C306.442 179.973 337.852 214.024 337.852 256.028C337.852 298.032 306.442 332.083 267.695 332.083Z" fill="url(#paint0_linear_32681_182695)"/>
<path fill-rule="evenodd" clip-rule="evenodd" d="M285.335 358.701C298.92 384.917 314.321 394.543 326.151 394.543C337.981 394.543 353.383 384.917 366.967 358.701C380.069 333.414 388.75 297.136 388.75 256C388.75 214.864 380.069 178.586 366.967 153.3C353.383 127.083 337.981 117.457 326.151 117.457C314.321 117.457 298.92 127.083 285.335 153.3C272.233 178.586 263.552 214.864 263.552 256C263.552 297.136 272.233 333.414 285.335 358.701ZM244.302 256C244.302 343.24 280.947 413.961 326.151 413.961C371.355 413.961 408 343.24 408 256C408 168.761 371.355 98.0391 326.151 98.0391C280.947 98.0391 244.302 168.761 244.302 256Z" fill="#0ED5B2"/>
<defs>
<linearGradient id="paint0_linear_32681_182695" x1="269.649" y1="256.028" x2="197.539" y2="256.028" gradientUnits="userSpaceOnUse">
<stop stop-color="white"/>
<stop offset="1" stop-color="white" stop-opacity="0"/>
</linearGradient>
</defs>
</svg>
